public/img/logotype-realms-blue-white.svg

<svg width="384" height="128" viewBox="0 0 384 128" fill="none" xmlns="http://www.w3.org/2000/svg">
<path d="M182.312 84.568C177.632 84.568 173.6 81.616 167.768 70.888L166.256 68.08C174.968 67.576 180.08 61.96 180.08 54.112C180.08 45.256 174.032 40 163.592 40H143V90.04H149.12V68.152H159.416L162.368 73.552C169.208 86.512 173.96 90.184 182.096 90.184C182.672 90.184 183.176 90.112 183.68 90.04V84.352C183.32 84.496 182.888 84.568 182.312 84.568ZM163.592 45.4C170.432 45.4 173.744 48.496 173.744 54.112C173.744 59.584 170.504 62.752 163.592 62.752H149.12V45.4H163.592Z" fill="white"/>
<path d="M217.874 78.088C215.498 82.84 212.258 85.72 206.714 85.72C199.874 85.72 195.698 81.256 195.338 74.128H222.05C222.122 73.696 222.122 72.832 222.122 72.184C222.122 61.672 216.074 54.616 206.138 54.616C196.346 54.616 189.074 62.032 189.074 72.76C189.074 83.416 196.562 90.904 206.714 90.904C214.922 90.904 219.746 86.368 222.482 80.968L217.874 78.088ZM206.066 59.728C212.114 59.728 215.426 63.112 215.93 69.304H195.482C196.274 63.328 200.306 59.728 206.066 59.728Z" fill="white"/>
<path d="M243.916 90.904C247.948 90.904 251.836 89.032 254.356 85.576V90.04H260.332V68.368C260.332 59.44 254.572 54.616 246.292 54.616C238.372 54.616 232.684 59.152 230.884 66.496L236.284 68.008C237.58 62.608 240.604 59.8 246.22 59.8C251.332 59.8 254.356 63.112 254.356 68.584V73.12C252.124 71.032 248.596 69.016 243.916 69.016C236.212 69.016 230.668 73.912 230.668 79.96C230.668 86.728 236.212 90.904 243.916 90.904ZM244.492 85.936C239.956 85.936 237.004 83.488 237.004 79.96C237.004 76.504 239.956 74.056 244.492 74.056C248.668 74.056 252.196 76.36 254.356 78.88V80.176C252.052 83.488 248.668 85.936 244.492 85.936Z" fill="white"/>
<path d="M278.563 90.04V40H272.587V90.04H278.563Z" fill="white"/>
<path d="M331.505 54.616C326.393 54.616 321.929 56.272 318.905 60.808C316.961 56.56 313.001 54.616 307.889 54.616C303.281 54.616 299.393 56.488 297.017 59.8V55.48H291.041V90.04H297.017V69.16C297.017 63.112 301.193 59.8 306.521 59.8C311.849 59.8 314.657 63.112 314.657 69.232V90.04H320.633V69.232C320.633 63.112 324.809 59.8 330.137 59.8C335.465 59.8 338.345 63.112 338.345 69.232V90.04H344.321V68.656C344.321 60.016 339.713 54.616 331.505 54.616Z" fill="white"/>
<path d="M369.637 90.904C377.557 90.904 383.533 87.16 383.533 80.32C383.533 73.192 378.061 71.32 372.301 70.312L368.197 69.592C363.373 68.8 361.573 67.576 361.573 64.48C361.573 61.384 364.381 59.584 369.133 59.584C374.677 59.584 377.197 62.752 377.917 66.064L383.317 64.624C382.309 58.936 377.845 54.616 369.349 54.616C360.925 54.616 355.741 58.504 355.741 64.552C355.741 71.968 361.357 73.84 367.261 74.92L371.293 75.568C375.685 76.36 377.341 77.44 377.341 80.392C377.341 84.136 374.101 85.936 369.781 85.936C364.309 85.936 360.133 83.848 359.557 77.656L354.013 78.664C354.157 87.088 361.357 90.904 369.637 90.904Z" fill="white"/>
<path d="M86.6635 112.55C86.0818 112.773 85.614 112.062 86.0261 111.594C97.213 98.9058 104 82.2452 104 63.9994C104 45.7537 97.213 29.093 86.0261 16.4043C85.6139 15.9369 86.0818 15.2254 86.6635 15.4492C106.162 22.9497 120 41.8586 120 63.9994C120 86.1403 106.162 105.049 86.6635 112.55Z" fill="#00C2FF"/>
<path d="M90.9556 33.4341C91.2154 34.0248 90.391 34.6184 89.8695 34.2384C87.4392 32.4682 83.131 30 78 30C68 30 54 42 54 64C54 86 64 98 76 98C82.4634 98 87.2558 95.4935 89.8371 93.7205C90.369 93.3552 91.2154 93.9753 90.9556 94.5659C84.4901 109.266 71.2627 120 56 120C31.6995 120 8 94.9279 8 64C8 33.0721 31.6995 8 56 8C71.2627 8 84.4901 18.734 90.9556 33.4341Z" fill="url(#paint0_radial_4624_72632)"/>
<defs>
<radialGradient id="paint0_radial_4624_72632" cx="0" cy="0" r="1" gradientUnits="userSpaceOnUse" gradientTransform="translate(76 64) rotate(180) scale(60.4267 80.569)">
<stop offset="0.156146" stop-color="#006585"/>
<stop offset="1" stop-color="#00C2FF"/>
</radialGradient>
</defs>
</svg>

<svg xmlns="http://www.w3.org/2000/svg" width="384" height="128" fill="none"><path fill="#fff" d="M182.312 84.568c-4.68 0-8.712-2.952-14.544-13.68l-1.512-2.808c8.712-.504 13.824-6.12 13.824-13.968 0-8.856-6.048-14.112-16.488-14.112H143v50.04h6.12V68.152h10.296l2.952 5.4c6.84 12.96 11.592 16.632 19.728 16.632.576 0 1.08-.072 1.584-.144v-5.688c-.36.144-.792.216-1.368.216ZM163.592 45.4c6.84 0 10.152 3.096 10.152 8.712 0 5.472-3.24 8.64-10.152 8.64H149.12V45.4h14.472ZM217.874 78.088c-2.376 4.752-5.616 7.632-11.16 7.632-6.84 0-11.016-4.464-11.376-11.592h26.712c.072-.432.072-1.296.072-1.944 0-10.512-6.048-17.568-15.984-17.568-9.792 0-17.064 7.416-17.064 18.144 0 10.656 7.488 18.144 17.64 18.144 8.208 0 13.032-4.536 15.768-9.936l-4.608-2.88Zm-11.808-18.36c6.048 0 9.36 3.384 9.864 9.576h-20.448c.792-5.976 4.824-9.576 10.584-9.576ZM243.916 90.904c4.032 0 7.92-1.872 10.44-5.328v4.464h5.976V68.368c0-8.928-5.76-13.752-14.04-13.752-7.92 0-13.608 4.536-15.408 11.88l5.4 1.512c1.296-5.4 4.32-8.208 9.936-8.208 5.112 0 8.136 3.312 8.136 8.784v4.536a15.167 15.167 0 0 0-10.44-4.104c-7.704 0-13.248 4.896-13.248 10.944 0 6.768 5.544 10.944 13.248 10.944Zm.576-4.968c-4.536 0-7.488-2.448-7.488-5.976 0-3.456 2.952-5.904 7.488-5.904 4.176 0 7.704 2.304 9.864 4.824v1.296c-2.304 3.312-5.688 5.76-9.864 5.76ZM278.563 90.04V40h-5.976v50.04h5.976ZM331.505 54.616c-5.112 0-9.576 1.656-12.6 6.192-1.944-4.248-5.904-6.192-11.016-6.192-4.608 0-8.496 1.872-10.872 5.184v-4.32h-5.976v34.56h5.976V69.16c0-6.048 4.176-9.36 9.504-9.36 5.328 0 8.136 3.312 8.136 9.432V90.04h5.976V69.232c0-6.12 4.176-9.432 9.504-9.432 5.328 0 8.208 3.312 8.208 9.432V90.04h5.976V68.656c0-8.64-4.608-14.04-12.816-14.04ZM369.637 90.904c7.92 0 13.896-3.744 13.896-10.584 0-7.128-5.472-9-11.232-10.008l-4.104-.72c-4.824-.792-6.624-2.016-6.624-5.112s2.808-4.896 7.56-4.896c5.544 0 8.064 3.168 8.784 6.48l5.4-1.44c-1.008-5.688-5.472-10.008-13.968-10.008-8.424 0-13.608 3.888-13.608 9.936 0 7.416 5.616 9.288 11.52 10.368l4.032.648c4.392.792 6.048 1.872 6.048 4.824 0 3.744-3.24 5.544-7.56 5.544-5.472 0-9.648-2.088-10.224-8.28l-5.544 1.008c.144 8.424 7.344 12.24 15.624 12.24Z"/><path fill="#00C2FF" d="M86.663 112.55c-.581.223-1.049-.488-.637-.956C97.213 98.906 104 82.245 104 63.999c0-18.245-6.787-34.906-17.974-47.595-.412-.467.056-1.179.638-.955C106.162 22.95 120 41.86 120 64c0 22.141-13.838 41.05-33.337 48.551Z"/><path fill="url(#a)" d="M90.956 33.434c.26.59-.565 1.184-1.087.804C87.44 32.468 83.132 30 78 30c-10 0-24 12-24 34s10 34 22 34a24.507 24.507 0 0 0 13.837-4.28c.532-.365 1.378.255 1.119.846C84.49 109.266 71.263 120 56 120 31.7 120 8 94.928 8 64S31.7 8 56 8c15.263 0 28.49 10.734 34.956 25.434Z"/><defs><radialGradient id="a" cx="0" cy="0" r="1" gradientTransform="matrix(-60.4267 0 0 -80.569 76 64)" gradientUnits="userSpaceOnUse"><stop offset=".156" stop-color="#006585"/><stop offset="1" stop-color="#00C2FF"/></radialGradient></defs></svg>
